src/assets/compendia/icons/tokens-core/department-science-rank-8-token.svg

<svg xmlns="http://www.w3.org/2000/svg" xml:space="preserve" style="fill-rule:evenodd;clip-rule:evenodd;stroke-linecap:round;stroke-miterlimit:1.5" viewBox="0 0 256 256"><path d="M0 0h256v256H0z" style="fill:none"/><g><circle cx="128" cy="128" r="128"/><path d="M128 0c70.645 0 128 57.355 128 128s-57.355 128-128 128S0 198.645 0 128 57.355 0 128 0m0 8C61.77 8 8 61.77 8 128s53.77 120 120 120 120-53.77 120-120S194.23 8 128 8" style="fill:#6e9cf7"/><path d="M0 15.595c-3.663 1.991-8.099 1.127-10.786-1.821q-.045-.163-.082-.326a10.48 10.48 0 0 0 9.578-.225 10.48 10.48 0 0 0 5.399-7.915q.116.12.228.246C5.351 9.412 3.662 13.605 0 15.595M2.57 4.056a8.87 8.87 0 0 1-13.652 7.42A8.869 8.869 0 0 1 2.57 4.056M-8.475.004c3.65-1.984 8.07-1.133 10.76 1.793.024.095.051.191.071.287a10.47 10.47 0 0 0-9.577.225 10.47 10.47 0 0 0-5.399 7.915q-.104-.108-.203-.217c-.991-3.848.698-8.019 4.348-10.003M5.806 4.756A10.5 10.5 0 0 0 3.754.998 10.4 10.4 0 0 0 .666-1.476a10.48 10.48 0 0 0-9.914.056 10.48 10.48 0 0 0-5.441 8.289 10.44 10.44 0 0 0 1.233 5.941 10.437 10.437 0 0 0 4.34 4.28 10.48 10.48 0 0 0 9.889-.071 10.48 10.48 0 0 0 5.439-8.26 10.4 10.4 0 0 0-.406-4.003" style="fill:#6e9cf7;fill-rule:nonzero" transform="translate(158.282 72.26)scale(7.14653)"/><path d="M1916.84 1455.5c3.71.33 7.44.5 11.16.5s7.45-.17 11.16-.5l-1.68-19.73c-3.15.29-6.32.43-9.48.43s-6.33-.14-9.48-.43z" style="fill:none;stroke:#6e9cf7;stroke-width:8.66px" transform="matrix(.9375 0 0 .9091 -1679.5 -1075.64)"/><path d="M1894.87 1451.5a124.2 124.2 0 0 0 66.26 0l-4.97-19.12c-9.18 2.53-18.65 3.82-28.16 3.82s-18.97-1.29-28.16-3.82z" style="fill:none;stroke:#6e9cf7;stroke-width:8.66px" transform="matrix(.9375 0 0 .9091 -1679.5 -1075.64)"/><path d="M1873.9 1443.63c16.95 8.15 35.41 12.37 54.1 12.37s37.15-4.22 54.1-12.37l-8.12-17.94c-14.4 6.92-30.09 10.51-45.98 10.51s-31.58-3.59-45.98-10.51z" style="fill:none;stroke:#6e9cf7;stroke-width:8.66px" transform="matrix(.9375 0 0 .9091 -1679.5 -1075.64)"/></g></svg>

<?xml version="1.0" encoding="UTF-8" standalone="no"?>
<!DOCTYPE svg PUBLIC "-//W3C//DTD SVG 1.1//EN" "http://www.w3.org/Graphics/SVG/1.1/DTD/svg11.dtd">
<svg width="100%" height="100%" viewBox="0 0 256 256" version="1.1" xmlns="http://www.w3.org/2000/svg" xmlns:xlink="http://www.w3.org/1999/xlink" xml:space="preserve" xmlns:serif="http://www.serif.com/" style="fill-rule:evenodd;clip-rule:evenodd;stroke-linecap:round;stroke-miterlimit:1.5;">
    <g transform="matrix(1,0,0,1,-7800,-3300)">
        <g transform="matrix(1,0,0,1,7800,3300)">
            <rect id="department-science-rank-8-token" x="0" y="0" width="256" height="256" style="fill:none;"/>
            <g id="department-science-rank-8-token1" serif:id="department-science-rank-8-token">
                <circle cx="128" cy="128" r="128"/>
                <path d="M128,0C198.645,0 256,57.355 256,128C256,198.645 198.645,256 128,256C57.355,256 0,198.645 0,128C0,57.355 57.355,0 128,0ZM128,8C61.77,8 8,61.77 8,128C8,194.23 61.77,248 128,248C194.23,248 248,194.23 248,128C248,61.77 194.23,8 128,8Z" style="fill:rgb(110,156,247);"/>
                <g transform="matrix(7.14653,0,0,7.14653,158.282,72.2594)">
                    <g id="Science">
                        <path id="Science1" serif:id="Science" d="M0,15.595C-3.663,17.586 -8.099,16.722 -10.786,13.774C-10.815,13.665 -10.844,13.557 -10.868,13.448C-7.929,14.866 -4.376,14.9 -1.29,13.223C1.796,11.546 3.7,8.545 4.109,5.308C4.187,5.388 4.262,5.471 4.337,5.554C5.351,9.412 3.662,13.605 0,15.595M2.57,4.056C2.55,7.181 0.877,10.201 -2.063,11.799C-5.005,13.397 -8.448,13.158 -11.082,11.476C-11.061,8.351 -9.389,5.331 -6.448,3.732C-3.507,2.134 -0.063,2.373 2.57,4.056M-8.475,0.004C-4.825,-1.98 -0.405,-1.129 2.285,1.797C2.309,1.892 2.336,1.988 2.356,2.084C-0.582,0.666 -4.135,0.632 -7.221,2.309C-10.307,3.986 -12.212,6.986 -12.62,10.224C-12.69,10.153 -12.756,10.079 -12.823,10.007C-13.814,6.159 -12.125,1.988 -8.475,0.004M5.806,4.756C5.603,4.087 5.329,3.428 4.982,2.789C4.628,2.138 4.215,1.54 3.754,0.998C2.877,-0.034 1.825,-0.866 0.666,-1.476C-2.333,-3.06 -6.044,-3.161 -9.248,-1.42C-12.452,0.322 -14.385,3.49 -14.689,6.869C-14.806,8.173 -14.681,9.508 -14.292,10.805C-14.087,11.487 -13.81,12.159 -13.456,12.81C-13.109,13.449 -12.706,14.037 -12.255,14.572C-11.367,15.625 -10.296,16.472 -9.116,17.09C-6.12,18.659 -2.422,18.756 0.773,17.019C3.969,15.282 5.9,12.127 6.212,8.759C6.334,7.433 6.208,6.074 5.806,4.756" style="fill:rgb(110,156,247);fill-rule:nonzero;"/>
                    </g>
                </g>
                <g transform="matrix(0.9375,0,0,0.909091,-1679.5,-1075.64)">
                    <path d="M1916.84,1455.5C1920.55,1455.83 1924.28,1456 1928,1456C1931.72,1456 1935.45,1455.83 1939.16,1455.5L1937.48,1435.77C1934.33,1436.06 1931.16,1436.2 1928,1436.2C1924.84,1436.2 1921.67,1436.06 1918.52,1435.77L1916.84,1455.5Z" style="fill:none;stroke:rgb(110,156,247);stroke-width:8.66px;"/>
                </g>
                <g transform="matrix(0.9375,0,0,0.909091,-1679.5,-1075.64)">
                    <path d="M1894.87,1451.5C1905.68,1454.49 1916.81,1456 1928,1456C1939.19,1456 1950.32,1454.49 1961.13,1451.5L1956.16,1432.38C1946.98,1434.91 1937.51,1436.2 1928,1436.2C1918.49,1436.2 1909.03,1434.91 1899.84,1432.38L1894.87,1451.5Z" style="fill:none;stroke:rgb(110,156,247);stroke-width:8.66px;"/>
                </g>
                <g transform="matrix(0.9375,0,0,0.909091,-1679.5,-1075.64)">
                    <path d="M1873.9,1443.63C1890.85,1451.78 1909.31,1456 1928,1456C1946.69,1456 1965.15,1451.78 1982.1,1443.63L1973.98,1425.69C1959.58,1432.61 1943.89,1436.2 1928,1436.2C1912.11,1436.2 1896.42,1432.61 1882.02,1425.69L1873.9,1443.63Z" style="fill:none;stroke:rgb(110,156,247);stroke-width:8.66px;"/>
                </g>
            </g>
        </g>
    </g>
</svg>
